assets/icons/settings.svg

<?xml version="1.0" encoding="utf-8"?><!-- Uploaded to: SVG Repo, www.svgrepo.com, Generator: SVG Repo Mixer Tools -->
<svg width="800px" height="800px" viewBox="0 0 24 24" fill="none" xmlns="http://www.w3.org/2000/svg">
<path d="M7.84308 20.1979C9.8718 21.3993 10.8862 22 12 22C13.1138 22 14.1282 21.3993 16.1569 20.1979L16.8431 19.7915C18.8718 18.5901 19.8862 17.9894 20.4431 17C21 16.0106 21 14.8092 21 12.4063M20.8147 8C20.7326 7.62759 20.6141 7.3038 20.4431 7C19.8862 6.01057 18.8718 5.40987 16.8431 4.20846L16.1569 3.80211C14.1282 2.6007 13.1138 2 12 2C10.8862 2 9.8718 2.6007 7.84308 3.80211L7.15692 4.20846C5.1282 5.40987 4.11384 6.01057 3.55692 7C3 7.98943 3 9.19084 3 11.5937V12.4063C3 14.8092 3 16.0106 3.55692 17C3.78326 17.4021 4.08516 17.74 4.5 18.0802" stroke="#1C274C" stroke-width="1.5" stroke-linecap="round"/>
<circle cx="12" cy="12" r="3" stroke="#1C274C" stroke-width="1.5"/>
</svg>

<svg xmlns="http://www.w3.org/2000/svg" width="800" height="800" fill="none" viewBox="0 0 24 24"><path stroke="#1C274C" stroke-linecap="round" stroke-width="1.5" d="M7.843 20.198C9.872 21.399 10.886 22 12 22s2.128-.6 4.157-1.802l.686-.407c2.029-1.2 3.043-1.802 3.6-2.791.557-.99.557-2.19.557-4.594M20.815 8a3.6 3.6 0 0 0-.372-1c-.557-.99-1.571-1.59-3.6-2.792l-.686-.406C14.128 2.601 13.114 2 12 2s-2.128.6-4.157 1.802l-.686.406C5.128 5.41 4.114 6.011 3.557 7 3 7.99 3 9.19 3 11.594v.812c0 2.403 0 3.605.557 4.594.226.402.528.74.943 1.08"/><circle cx="12" cy="12" r="3" stroke="#1C274C" stroke-width="1.5"/></svg>
